X:1
T: The Girl for Me
C:
R:Jig
Q:180
K:G
M:6/8
L:1/16
|:A2|B2B2B2 G2B2d2|G2B2d2 B2A2G2|A2A2A2 e2d2B2|g2e2d2 e2c2A2|
B2B2B2 G2B2d2|G2B2d2 B2A2G2|A2A2A2 A4B2|G3GGG G4:|
|:g2|f2e2d2 e2f2g2|f2e2d2 c2A2G2|A2A2A2 e2d2B2|e2d2c2 e2c2A2|
f2e2d2 e2f2g2|f2e2d2 c2A2G2|A2A2A2 A4B2|G3GGG G4:|
